projects/plugins/boost/app/assets/src/images/boost-off.svg

<svg fill="none" height="171" viewBox="0 0 210 171" width="210" xmlns="http://www.w3.org/2000/svg"><path d="m4.30859 170.291 1.89801-148.4508v-7.4383c0-6.4888 5.2195-11.86973 11.8625-11.86973h174.1419c6.485 0 11.863 5.22267 11.863 11.86973v155.7301h-179.9945" fill="#dddedf"/><path d="m135.331 138.74c22.012-15.48 27.274-45.9419 11.753-68.0386s-45.948-27.4605-67.9594-11.9803c-22.0119 15.4801-27.2738 45.9419-11.7528 68.0389 15.5211 22.097 45.9472 27.461 67.9592 11.98z" fill="#fff"/><path d="m6.20605 33.5517v-19.4663c0-7.75489 5.21955-14.0854 11.70435-14.0854h174.2996c6.485 0 11.863 6.33051 11.863 14.0854v19.4663zm94.42595 16.6176c-12.8118 1.2661-24.9906 7.7549-33.2153 17.5672-8.3829 9.8123-12.6534 22.7898-12.0207 35.6095.6327 12.977 6.1685 25.163 15.5004 34.184 9.3318 9.021 21.6688 14.086 34.6386 14.086 12.811.158 25.307-5.381 34.006-14.244.158-.158.158-.475 0-.791-.158-.158-.475-.158-.633 0-9.49 7.596-21.352 11.711-33.215 11.395-11.8624-.475-23.4086-5.065-31.7915-13.453-8.541-8.229-13.4442-19.466-13.9187-31.336-.4745-11.7111 3.4797-23.5808 11.2299-32.4435 7.592-8.8628 18.5055-14.8767 30.2103-16.1428 11.704-1.4244 23.566 1.8991 33.056 9.0209 9.491 7.1219 15.975 17.5672 18.032 29.2787 1.107 5.8557.949 11.7117 0 17.5667-.475 3.007-1.108 6.014-1.898 8.705-.633 1.582 2.214 2.849 2.847 1.108 1.265-3.007 1.898-6.173 2.53-9.18 1.107-6.172 1.582-12.6606.475-18.9911-4.745-26.2716-29.103-44.7883-55.833-41.9396z" fill="#929698"/><path d="m209.609 33.5517c-17.398 1.4243-34.796 1.2661-52.353 1.4243l-52.511.1583-52.3536-.3165c-17.3984 0-34.7968 0-52.3533141-1.4244v-.7913c17.3984141-1.4244 34.7967141-1.2661 52.3533141-1.4244l52.3536-.1582 52.353.1582c17.398 0 34.797 0 52.353 1.4244v.7913h.158zm-137.1304 81.5053c-.6327-1.583-2.3725-2.374-3.796-1.741-1.5817.633-2.3725 2.374-1.7399 3.798.6327 1.583 2.3725 2.374 3.796 1.741 1.5817-.633 2.3726-2.374 1.7399-3.798zm-5.694-12.661c-1.5817-.158-2.847-1.583-2.847-3.1653 0-1.5826 1.5816-2.8487 3.1633-2.8487 1.5817.1583 2.847 1.5826 2.847 3.1653-.1582 1.7407-1.5817 2.8487-3.1633 2.8487zm3.3215-16.7759c-1.4235-.7913-1.898-2.5322-1.1072-4.1148.7908-1.4244 2.5307-1.8992 4.1124-1.1078 1.4235.7913 1.898 2.5322 1.1071 4.1148-.949 1.4244-2.6888 1.8991-4.1123 1.1078zm9.9645-13.7688c-.949-1.2661-.6327-3.1653.6327-4.1149 1.2653-.9495 3.1633-.633 4.1123.6331s.6327 3.1652-.6327 4.1148c-1.2653 1.1079-3.1633.7913-4.1123-.633zm14.8677-8.2297c-.3163-1.5826.7908-3.1653 2.3725-3.4818s3.1632.7913 3.4792 2.374c.317 1.5826-.7904 3.1652-2.372 3.4817-1.5817.3166-3.1634-.633-3.4797-2.3739zm16.9237-1.1078c.317-1.5827 2.056-2.5322 3.638-2.2157s2.531 2.0574 2.214 3.64c-.316 1.5827-2.056 2.5322-3.637 2.2157-.756-.222-1.402-.7181-1.812-1.3913-.409-.6732-.553-1.4751-.403-2.2487zm15.975 6.1722c1.107-1.2661 2.847-1.4244 4.271-.4748 1.265 1.1079 1.423 2.8488.474 4.2731-.949 1.4244-2.847 1.4244-4.27.4748-1.424-1.1078-1.582-3.007-.475-4.2731zm11.704 12.1862c1.424-.7913 3.322-.1582 3.955 1.4244.79 1.4244.158 3.3235-1.424 3.9566-1.582.633-3.321.1582-3.954-1.4244s0-3.1652 1.423-3.9566zm5.536 16.1428c1.582 0 3.005 1.2662 3.005 2.8488 0 1.5822-1.265 3.0072-2.847 3.0072-1.581 0-3.005-1.266-3.005-2.849 0-1.5826 1.266-3.007 2.847-3.007zm-1.74 16.934c1.582.633 2.215 2.374 1.582 3.957-.633 1.582-2.372 2.215-3.954 1.582s-2.214-2.374-1.582-3.956c.633-1.583 2.373-2.216 3.954-1.583z" fill="#666b6d"/><path d="m136.061 77.2322c-.316-.1582-.633-.1582-.949-.1582-6.01 2.8487-11.23 6.9635-16.291 10.9201-1.582 1.2661-5.378 4.2731-8.067 6.1723-1.265-.7914-2.688-1.1079-4.27-1.1079-4.429.1583-7.9085 3.7983-7.7503 8.2295.1582 4.432 3.7963 7.913 8.2243 7.755 4.429-.158 7.909-3.798 7.751-8.23 0-.9492-.159-1.7405-.475-2.5318 2.214-1.7409 5.536-4.5896 7.592-6.3305 5.061-4.1149 10.123-8.388 14.235-13.6106.316-.3166.316-.7913 0-1.1079zm-29.103 28.3288c-2.372.159-4.428-1.899-4.586-4.273-.159-2.3738 1.898-4.4312 4.27-4.5894 2.373-.1583 4.429 1.8991 4.587 4.2734 0 2.532-1.898 4.589-4.271 4.589z" fill="#6a6a6a"/></svg>

<svg width="210" height="171" viewBox="0 0 210 171" fill="none" xmlns="http://www.w3.org/2000/svg">
<path d="M4.30859 170.291L6.2066 21.8402V14.4019C6.2066 7.9131 11.4261 2.53217 18.0691 2.53217H192.211C198.696 2.53217 204.074 7.75484 204.074 14.4019V170.132H24.0795" fill="#DDDEDF"/>
<path d="M135.331 138.74C157.343 123.26 162.605 92.7981 147.084 70.7014C131.563 48.6047 101.136 43.2409 79.1246 58.7211C57.1127 74.2012 51.8508 104.663 67.3718 126.76C82.8929 148.857 113.319 154.221 135.331 138.74Z" fill="white"/>
<path d="M6.20605 33.5517V14.0854C6.20605 6.33051 11.4256 0 17.9104 0H192.21C198.695 0 204.073 6.33051 204.073 14.0854V33.5517H6.20605ZM100.632 50.1693C87.8202 51.4354 75.6414 57.9242 67.4167 67.7365C59.0338 77.5488 54.7633 90.5263 55.396 103.346C56.0287 116.323 61.5645 128.509 70.8964 137.53C80.2282 146.551 92.5652 151.616 105.535 151.616C118.346 151.774 130.842 146.235 139.541 137.372C139.699 137.214 139.699 136.897 139.541 136.581C139.383 136.423 139.066 136.423 138.908 136.581C129.418 144.177 117.556 148.292 105.693 147.976C93.8306 147.501 82.2844 142.911 73.9015 134.523C65.3605 126.294 60.4573 115.057 59.9828 103.187C59.5083 91.4759 63.4625 79.6062 71.2127 70.7435C78.8047 61.8807 89.7182 55.8668 101.423 54.6007C113.127 53.1763 124.989 56.4998 134.479 63.6216C143.97 70.7435 150.454 81.1888 152.511 92.9003C153.618 98.756 153.46 104.612 152.511 110.467C152.036 113.474 151.403 116.481 150.613 119.172C149.98 120.754 152.827 122.021 153.46 120.28C154.725 117.273 155.358 114.107 155.99 111.1C157.097 104.928 157.572 98.4394 156.465 92.1089C151.72 65.8373 127.362 47.3206 100.632 50.1693Z" fill="#929698"/>
<path d="M209.609 33.5517C192.211 34.976 174.813 34.8178 157.256 34.976L104.745 35.1343L52.3914 34.8178C34.993 34.8178 17.5946 34.8178 0.0380859 33.3934V32.6021C17.4365 31.1777 34.8348 31.336 52.3914 31.1777L104.745 31.0195L157.098 31.1777C174.496 31.1777 191.895 31.1777 209.451 32.6021V33.3934H209.609V33.5517ZM72.4786 115.057C71.8459 113.474 70.1061 112.683 68.6826 113.316C67.1009 113.949 66.3101 115.69 66.9427 117.114C67.5754 118.697 69.3152 119.488 70.7387 118.855C72.3204 118.222 73.1113 116.481 72.4786 115.057ZM66.7846 102.396C65.2029 102.238 63.9376 100.813 63.9376 99.2307C63.9376 97.6481 65.5192 96.382 67.1009 96.382C68.6826 96.5403 69.9479 97.9646 69.9479 99.5473C69.7897 101.288 68.3662 102.396 66.7846 102.396ZM70.1061 85.6201C68.6826 84.8288 68.2081 83.0879 68.9989 81.5053C69.7897 80.0809 71.5296 79.6061 73.1113 80.3975C74.5348 81.1888 75.0093 82.9297 74.2184 84.5123C73.2694 85.9367 71.5296 86.4114 70.1061 85.6201ZM80.0706 71.8513C79.1216 70.5852 79.4379 68.686 80.7033 67.7364C81.9686 66.7869 83.8666 67.1034 84.8156 68.3695C85.7646 69.6356 85.4483 71.5347 84.1829 72.4843C82.9176 73.5922 81.0196 73.2756 80.0706 71.8513ZM94.9383 63.6216C94.622 62.039 95.7291 60.4563 97.3108 60.1398C98.8925 59.8233 100.474 60.9311 100.79 62.5138C101.107 64.0964 99.9996 65.679 98.418 65.9955C96.8363 66.3121 95.2546 65.3625 94.9383 63.6216ZM111.862 62.5138C112.179 60.9311 113.918 59.9816 115.5 60.2981C117.082 60.6146 118.031 62.3555 117.714 63.9381C117.398 65.5208 115.658 66.4703 114.077 66.1538C113.321 65.9318 112.675 65.4357 112.265 64.7625C111.856 64.0893 111.712 63.2874 111.862 62.5138ZM127.837 68.686C128.944 67.4199 130.684 67.2616 132.108 68.2112C133.373 69.3191 133.531 71.06 132.582 72.4843C131.633 73.9087 129.735 73.9087 128.312 72.9591C126.888 71.8513 126.73 69.9521 127.837 68.686ZM139.541 80.8722C140.965 80.0809 142.863 80.714 143.496 82.2966C144.286 83.721 143.654 85.6201 142.072 86.2532C140.49 86.8862 138.751 86.4114 138.118 84.8288C137.485 83.2462 138.118 81.6636 139.541 80.8722ZM145.077 97.015C146.659 97.015 148.082 98.2812 148.082 99.8638C148.082 101.446 146.817 102.871 145.235 102.871C143.654 102.871 142.23 101.605 142.23 100.022C142.23 98.4394 143.496 97.015 145.077 97.015ZM143.337 113.949C144.919 114.582 145.552 116.323 144.919 117.906C144.286 119.488 142.547 120.121 140.965 119.488C139.383 118.855 138.751 117.114 139.383 115.532C140.016 113.949 141.756 113.316 143.337 113.949Z" fill="#666B6D"/>
<path d="M136.061 77.2322C135.745 77.074 135.428 77.074 135.112 77.074C129.102 79.9227 123.882 84.0375 118.821 87.9941C117.239 89.2602 113.443 92.2672 110.754 94.1664C109.489 93.375 108.066 93.0585 106.484 93.0585C102.055 93.2168 98.5755 96.8568 98.7337 101.288C98.8919 105.72 102.53 109.201 106.958 109.043C111.387 108.885 114.867 105.245 114.709 100.813C114.709 99.8638 114.55 99.0725 114.234 98.2812C116.448 96.5403 119.77 93.6916 121.826 91.9507C126.887 87.8358 131.949 83.5627 136.061 78.3401C136.377 78.0235 136.377 77.5488 136.061 77.2322ZM106.958 105.561C104.586 105.72 102.53 103.662 102.372 101.288C102.213 98.9142 104.27 96.8568 106.642 96.6986C109.015 96.5403 111.071 98.5977 111.229 100.972C111.229 103.504 109.331 105.561 106.958 105.561Z" fill="#6A6A6A"/>
</svg>
